X: 1
T: A.M.Shinnie
C: Angus Fitchet
R: reel
B: Hugh Foss, "The ANGUS FITCHET Album" 1954
Z: 2010 John Chambers <jc:trillian.mit.edu>
M: C|
L: 1/8
K: D
A \
| "D"d>ef edc | "G"B>cd "D"A2F | "G"G>AB "D"A>de | "D"f<af "A7"e2A \
| "D"d>ef e>dc | "G"B>cd "D"A2F | "G"G>AB "D"A>de | "A7"e<Bc "D"d2 :|
|: A \
| "D"f2f d>ef | a>gf "A7"e2A | "Bm"d2d B>cd | f>ed "F#7"c2^A \
| "G"B2B d>cB | "D"A2A d2e \
|1 "D"f2f a2f | f>ed "A7"e2A \
:|2 "D"f>gf fed | "A7"e>Bc "D"d2 |]
